X:0
T:Katip
G:song
O:18th century Istanbul
M:C|
L:1/8
Q:1/2=96
K:EMin
E3B B2B2|cBcd B2B2|A2AA G2A2 |B6 z2 |
E3B B2B2|cBcd B2B2|A2AA G2A2 |B6 z2 |
E3F G2A2|BcBA GFE2|FAGF GFED |F6 z2 |
E3F G2A2|BcBA GFE2|FAGF GFE^D|E6 z2|]
